X: 11
T: Harry's Frolick
R: reel
M: C
L: 1/8
Z: 2010,2014 John Chambers <jc:trillian.mit.edu>
B: Longman ed. "Twenty Four Country Dances", p.30 London 1770
K: A
|: ecBA BdcB | AGAc eae2 | ecBA BdcB | AGAB c2B2 :|
|: efeg aecA | BdcB cAGE | efeg aecA | BdcB A2A2 :|
% - - - - - - - - - - - - - - - - - - - - - - - - -
%%begintext align
%% 1st Cu: lead down between the 2d and out round the 3d
%% in between the 3d and out Round the 2d |
%% Cross over one Cu: and turn your Partner
%% Right and Left with the Top |
%%endtext
% - - - - - - - - - - - - - - - - - - - - - - - - -
